X:1
T:O fly not, O take some pity - Morley
T:#
%%score { 1 | 2 } 3
L:1/8
Q:1/4=120
M:4/4
K:C
V:1 treble nm="Soprano I" snm="S"
V:2 treble 
V:3 treble-8 nm="Tenor" snm="T"
V:1
 A4 Bc d2 | ^c2 c2 d2 D2 |"^O fly not, O take some pity" E4 D4 | %3
w: O fly not, O|take some pi- ty,|pi- ty,|
 z2"^Thomas Morley\n(1557-1603)" E2 FG A2 |[M:4/4] G2 F2 E4 | D4 A4 | Bc d2 ^c2 c2 | d4 A4 | %8
w: O fly not, O|take some pi-|ty, O|fly not, O take some|pi- ty.|
 z2 f2 e2 d2 |[M:3/2] ^c2 z2 z2 d2 z2 d2 |[M:3/2] ^c4 d2 e2 z2 f2 |[M:4/4] e2 e4 =c2 | %12
w: I faint a-|las ah, a-|las, I faint; O|stay, stay her,|
[M:4/4] d2 c2 B4 | ^c4 =c4 | x8 |[M:4/4] G8 | edef g2 g2 | a4 f2 a2 | g2 e3 f g2 | f2 d3 e f2 | %20
w: O stay, stay|her, stay||her.|See, see, see, see how she|flies, she flies,|she flies, she flies,|she flies, she flies;|
 z2 e2 e4 | z4 z2 e2 | e4 z2 B2 | ^c4 f4 | e2 d2 (d4- | d2 ^cB c4) | d4 z2 d2 | B3 c d2 e2 | %28
w: O stay,|O|stay, O|stay and|hear my pray\-||er. With|one sweet look you|
 d2 G2 B2 e2 | (d2 c4 B2) | c4 G2 A2- | AG G4 ^F2 | G2 g2 f2 f2 | e2 e2 d2 e2 | e2 d2 (d2 ^c2) | %35
w: may of tor- ment|ease * *|me; I am|* no ti- ger|fierce, I am no|ti- ger fierce that|seeks to spill *|
 d2 z2 z2 c2 | B2 B2 A2 A2 | G2 E2 FGAB | c4 B2 B2 | A2 A2 G2 E2 | F2 A2 (G3 F) | E8 | z4 c4 | %43
w: thee. No,|no, I see, I|see, thou dost but this to|kill me, thou|dost but this, I|see, to kill *|me.|I|
 B2 B2 A2 A2 | G3 A B2 B2 | A4 G2 g2 | f2 f2 e2 e2 | d2 e2 (e2 d2) | e2 g2 f2 f2 | e3 e d2 d2 | %50
w: am no ti- ger|fierce that seeks to|spill thee; no,|no, thou dost but|this to kill *|me, no, no, thou|dost but this to|
 c2 f2 (e3 d) | ^c4 z2 e2 | f2 e2 d2 ^c2 | d2 e2 f2 e2 | d2 e2 f2 e2 | %55
w: kill, to kill *|me. Lo|then I die, I|die, I die, I|die, I die, I|
[Q:1/4=118] d2[Q:1/4=116] ^c2[Q:1/4=114] d2[Q:1/4=112] e2 | %56
w: die, and all to|
[Q:1/4=110] f2[Q:1/4=108] e2[Q:1/4=105] f4 |[Q:1/4=104] e8 |] %58
w: please, to please|thee.|
V:2
 z8 | A4 Bc d2 | ^c2 c2 d4 | A4 z2 f2 |[M:4/4] e2 d2 ^c4 | d2 DE F2 EF | G2 F2 E4 | D4 z2 E2 | %8
w: |O fly not, O|take some pi-|ty, I|faint, a- las,|O fly not, O fly not,|O take pi-|ty, O|
 FG A2 G2 F2 |[M:3/2] E4 D4 F4 |[M:3/2] E2 z2 F2 x6 |[M:4/4] G4 A2 x2 |[M:4/4] G2 =c2 B2 A2 | %13
w: fly not, O take some|pi- ty. I|faint, I|faint; a-|las, O stay, O|
 B2 A4 ^G2 | A8 |[M:4/4] edef g2 g2 | g4 e2 e2 | f2 FG ABcd | e2 c3 d e2 | d2 f3 e d2 | %20
w: stay, O stay|her.|See, see, see, see how she|flies, how she|flies, see, see, see, see how she|flies, how she flies,|see how she flies;|
 ^c2 z2 z2 =c2 | B4 (A4- | A2 ^G^F G4) | A4 A4 | A3 (G F4) | E8 | ^F8 | z2 d2 B3 c | d2 e2 d2 G2 | %29
w: O, O|stay, O||stay and|hear my *|pray-|er.|With one sweet|look you may of|
 B2 e2 d4 | c8 | z4 c4 | B2 B2 A2 A2 | G3 A B2 B2 | A4 G2 g2 | f2 f2 e2 e2 | d2 e2 (e2 d2) | %37
w: tor- ment ease|me;|I|am no ti- ger|fierce that seeks to|spill thee. No,|no, thou dost but|this to kill *|
 e2 g2 f2 f2 | e3 e d2 d2 | c2 f2 e4 | d2 (c4 B2) | c4 G2 A2- | AG G4 ^F2 | G2 g2 f2 f2 | %44
w: me, no, no, thou|dost but this to|kill, I see,|to kill *|me. I am|* no ti- ger|fierce, I am no|
 e2 e2 d2 e2 | e2 d2 (d2 ^c2) | d2 z2 z2 =c2 | B2 B2 A2 A2 | G2 E2 FGAB | c4 B4 | A2 (A4 ^G2) | %51
w: ti- ger fierce that|seeks to spill *|thee; no,|no, I see, I|see thou dost but this to|kill me,|to kill *|
 A8 | z2 e2 f2 e2 | d2 ^c2 d2 e2 | f2 e2 d2 ^c2 | d2 e2 f2 e2 | d2 ^c2 d4 | ^c8 |] %58
w: me.|Lo then I|die, I die, I|die, I die, I|die, I die, and|all to please|thee.|
V:3
 z8 | z8 | A4 Bc d2 | ^c2 c2 d2 A2 |[M:4/4][K:treble-8] c2 d2 A4 | D8 | z4 A4 | Bc d2 ^c2 c2 | %8
w: ||O fly not, O|take some pi- ty,|take some pi-|ty,|O|fly not, O take some|
 d2 A2 =c2 d2 |[M:3/2][K:treble-8] A4 D4 d4 |[M:3/4] A2 z2 d2 x6 | =c2 z2 F2 x2 | %12
w: pi- ty, take some|pi- ty. I|faint, I|faint; O|
[M:4/4] c2 A2 e2 f2 | d4 e4 | A4 AGAB |[M:4/4][K:treble-8] c2 c2 c4 | C2 c3 _BAG | F4 F2 F2 | %18
w: stay, O stay, O|stay, stay|her. See, see, see, see|how she flies|a- way, she flies, she|flies, see, see|
 c4 c4 | d4 D4 | A4 z2 A2 | ^G4 A4 | E6 E2 | A4 d4 | ^c4 d4 | A8 | D4 D4 | G8 | G8 | G8 | C4 c4 | %31
w: how she|flies, she|flies; O|stay, O|stay, O|stay and|hear my|pray-|er. And|you|shall|ease|me; I|
 B2 B2 A2 A2 | G2 E2 F2 F2 | (CD EF) G2 g2 | f2 f2 e2 e2 | d2 A2 c4 | G2 G2 F2 F2 | E2 E2 D2 F2 | %38
w: am no ti- ger|fierce that seeks to|spill * * * thee. No,|no, thou dost but|this to kill|me, no, no, thou|dost but this to|
 (CD EF) G2 G2 | A2 F2 c4 | F4 G4 | C4 c4 | B2 B2 A2 A2 | G2 E2 F2 F2 | (CD EF) G2 g2 | %45
w: kill * * * me, I|see, to kill,|to kill|me. I|am no ti- ger|fierce that seeks to|spill * * * thee, no,|
 f2 f2 e2 e2 | d2 A2 c4 | G2 G2 F2 F2 | E2 E2 D2 F2 | (CD EF) G2 G2 | A2 D2 E4 | A4 z2 A2 | %52
w: no, thou dost but|this to kill|me, no, no, thou|dost but this to|kill * * * me, to|kill, to kill|me. Lo|
 d2 ^c2 d2 A2 | D2 A2 D2 A2 | d2 ^c2 d2 A2 | F2 A2 D2 A2 | D2 A2 D4 | A8 |] %58
w: then I die, I|die, I die, I|die, I die, I|die, and all to|please, to please|thee.|

